X: 79
T:Karsilama
S:T. Hakki Karahasan, Yoresel Turk Halk Oyunlari, 2003
M:9/8
L:1/8
K:BPhr
BA Bc de ddc|de dc BA B3:|
B2 e2 eg e2d|de dc BA B3:|
Bd cB A2 cBA|GF G2 BA B3 |
Bd cB A2 cBA|GF G2 BA B3:|

This is part of a piece of Turkish art music from the early 20th century:

